app/img/wifi-icon.svg

<svg width="32" height="32" viewBox="0 0 32 32" fill="none" xmlns="http://www.w3.org/2000/svg">
<g clip-path="url(#clip0)">
<path d="M15.9376 29.1562C17.0766 29.1562 18.0001 28.2328 18.0001 27.0937C18.0001 25.9547 17.0766 25.0312 15.9376 25.0312C14.7985 25.0312 13.8751 25.9547 13.8751 27.0937C13.8751 28.2328 14.7985 29.1562 15.9376 29.1562Z" fill="#10375C"/>
<path d="M22.0719 20.0182C20.4456 18.4071 18.1146 17.4062 15.9882 17.4062C15.988 17.4062 15.9875 17.4062 15.9873 17.4062H15.8972C15.8968 17.4062 15.8966 17.4062 15.8963 17.4062C13.7698 17.4062 11.4386 18.4071 9.8124 20.0182C9.32203 20.5041 9.31834 21.2956 9.80421 21.786C10.0487 22.0327 10.3704 22.1562 10.6922 22.1562C11.0102 22.1562 11.3282 22.0357 11.5719 21.7942C12.7296 20.6472 14.4269 19.9062 15.8964 19.9062C15.8966 19.9062 15.8968 19.9062 15.897 19.9062H15.9875C15.9877 19.9062 15.9878 19.9062 15.988 19.9062C17.4573 19.9062 19.1548 20.6473 20.3123 21.7942C20.8027 22.2801 21.5943 22.2766 22.0801 21.786C22.566 21.2956 22.5623 20.5041 22.0719 20.0182Z" fill="#10375C"/>
<path d="M31.6644 9.67899C27.5563 5.27131 21.9934 2.84381 15.9998 2.84375C10.0066 2.84381 4.44372 5.27131 0.335543 9.67899C-0.135081 10.184 -0.107269 10.975 0.39773 11.4457C0.902792 11.9163 1.69373 11.8885 2.16441 11.3835C5.79441 7.48874 10.7079 5.34381 16.0002 5.34375C21.2921 5.34381 26.2056 7.48874 29.8355 11.3835C30.0817 11.6476 30.4155 11.7812 30.7502 11.7812C31.0554 11.7812 31.3614 11.6701 31.6022 11.4457C32.1072 10.9749 32.1351 10.184 31.6644 9.67899Z" fill="#10375C"/>
<path d="M27.0746 14.8411C24.0379 11.7815 20.1049 10.0966 15.9999 10.0967C11.8939 10.0967 7.96081 11.7817 4.92507 14.8412C4.43882 15.3313 4.44188 16.1227 4.93194 16.609C5.422 17.0952 6.21344 17.0922 6.69969 16.6021C9.2625 14.0192 12.5654 12.5967 15.9999 12.5967C19.4335 12.5965 22.7363 14.0191 25.3001 16.6022C25.5445 16.8484 25.8658 16.9717 26.1873 16.9717C26.5056 16.9717 26.8241 16.8508 27.068 16.6088C27.5579 16.1225 27.5609 15.3311 27.0746 14.8411Z" fill="#10375C"/>
</g>
<defs>
<clipPath id="clip0">
<rect width="32" height="32" fill="white"/>
</clipPath>
</defs>
</svg>

<svg width="32" height="32" fill="none" xmlns="http://www.w3.org/2000/svg"><g clip-path="url(#clip0)" fill="#10375C"><path d="M15.938 29.156a2.063 2.063 0 100-4.125 2.063 2.063 0 000 4.125zm6.134-9.138c-1.626-1.61-3.957-2.612-6.084-2.612h-.092c-2.126 0-4.457 1.001-6.084 2.612a1.25 1.25 0 001.76 1.776c1.158-1.147 2.855-1.888 4.324-1.888h.092c1.47 0 3.167.741 4.324 1.888a1.25 1.25 0 101.76-1.776zm9.592-10.339C27.556 5.271 21.994 2.844 16 2.844 10.007 2.844 4.444 5.27.336 9.679a1.25 1.25 0 001.828 1.704C5.794 7.49 10.708 5.343 16 5.343s10.206 2.146 13.835 6.04a1.247 1.247 0 001.767.063 1.25 1.25 0 00.062-1.767z"/><path d="M27.075 14.841c-3.037-3.06-6.97-4.744-11.075-4.744-4.106 0-8.04 1.685-11.075 4.744A1.25 1.25 0 006.7 16.602c2.562-2.583 5.865-4.005 9.3-4.005 3.433 0 6.736 1.422 9.3 4.005a1.246 1.246 0 001.768.007 1.25 1.25 0 00.007-1.768z"/></g><defs><clipPath id="clip0"><path fill="#fff" d="M0 0h32v32H0z"/></clipPath></defs></svg>
